X: 1882
T: Tâhir Seyir
C: Şefik Gürmeriç
O: Turkey
F: http://compmusic.upf.edu/node/140
N: tahir--seyir--sofyan--1--sefik_gurmeric
N: makam= tahir
N: form= seyir
N: usul= sofyan = 4/4
M: 4/4
L: 1/16
K: C _2/4B ^3/4f  
Q: 1/4=60
%%MIDI tuningsystem comma53
g4 a4 a6b2  | a2g2 g2f2 f3e d4  | e2f2 g2f2 e2d2 d=fed  | 
w:   |   |   | 
c4 d4 d8  | d2e4f2 g8  | g2=f2 e2d2 dccB c4  | \
w:   |   |   | 
z4 d2e2 f2g2 a4  | 
w:   | 
g2=f2 e2d2 dfed c2B2  | A4 =f2f2 f2e4d2  | \
w:   |   | 
d2c4B2 B3A G4  | 
w:   | 
z4 A2B2 c2d2 d2c2  | c3B BABA A8  | |


